-- Compat info - Tidal commit: 213c8f5a5f35a921c860d69ed968fa8f48cd333a

:script ../../Prelude.hs

setbpm 126

p "h"
$ whenmod 6 4 (const $ sound "~")
$ sound "hh(7,16,14)"
  # orbit 5
  # speed "1.2"
  # gain "0.9"
  # pan "0"
  # reverbPan "1"
  # room 0.4
